archdroid-icon-theme/Archdroid-Blue/mimetypes/scalable/unknown.svg

<?xml version="1.0" encoding="UTF-8" standalone="no"?>
<svg
   xmlns:dc="http://purl.org/dc/elements/1.1/"
   xmlns:cc="http://creativecommons.org/ns#"
   xmlns:rdf="http://www.w3.org/1999/02/22-rdf-syntax-ns#"
   xmlns:svg="http://www.w3.org/2000/svg"
   xmlns="http://www.w3.org/2000/svg"
   xmlns:sodipodi="http://sodipodi.sourceforge.net/DTD/sodipodi-0.dtd"
   xmlns:inkscape="http://www.inkscape.org/namespaces/inkscape"
   fill="#2196F3"
   width="48"
   height="48"
   viewBox="0 0 48 48"
   id="svg2"
   version="1.1"
   inkscape:version="0.91 r13725"
   sodipodi:docname="unknown.svg">
  <metadata
     id="metadata10">
    <rdf:RDF>
      <cc:Work
         rdf:about="">
        <dc:format>image/svg+xml</dc:format>
        <dc:type
           rdf:resource="http://purl.org/dc/dcmitype/StillImage" />
        <dc:title></dc:title>
      </cc:Work>
    </rdf:RDF>
  </metadata>
  <defs
     id="defs8" />
  <sodipodi:namedview
     pagecolor="#ffffff"
     bordercolor="#666666"
     borderopacity="1"
     objecttolerance="10"
     gridtolerance="10"
     guidetolerance="10"
     inkscape:pageopacity="0"
     inkscape:pageshadow="2"
     inkscape:window-width="1366"
     inkscape:window-height="713"
     id="namedview6"
     showgrid="false"
     inkscape:zoom="4.9166667"
     inkscape:cx="-5.5932202"
     inkscape:cy="24"
     inkscape:window-x="0"
     inkscape:window-y="30"
     inkscape:window-maximized="1"
     inkscape:current-layer="svg2" />
  <path
     d="M 10 6 C 7.79 6 6 7.79 6 10 L 6 38 C 6 40.21 7.79 42 10 42 L 38 42 C 40.21 42 42 40.21 42 38 L 42 10 C 42 7.79 40.21 6 38 6 L 10 6 z M 24 12.875 C 27.512164 12.875 30.357422 15.720259 30.357422 19.232422 C 30.357422 20.630931 29.792839 21.894662 28.871094 22.816406 L 27.449219 24.277344 C 26.304985 25.421578 25.589844 26.383756 25.589844 28.767578 L 22.410156 28.767578 L 22.410156 27.972656 C 22.410156 26.216574 23.125297 24.62679 24.269531 23.474609 L 26.248047 21.472656 C 26.820164 20.90054 27.177734 20.10649 27.177734 19.232422 C 27.177734 17.47634 25.756082 16.054687 24 16.054688 C 22.243918 16.054688 20.822266 17.47634 20.822266 19.232422 L 17.642578 19.232422 C 17.642578 15.720259 20.487836 12.875 24 12.875 z M 22.410156 31.945312 L 25.589844 31.945312 L 25.589844 35.125 L 22.410156 35.125 L 22.410156 31.945312 z "
     id="path4137" />
</svg>

<svg xmlns="http://www.w3.org/2000/svg" fill="#2196F3" viewBox="0 0 48 48"><path d="m10 6c-2.21 0-4 1.79-4 4v28c0 2.21 1.79 4 4 4h28c2.21 0 4-1.79 4-4v-28c0-2.21-1.79-4-4-4h-28m14 6.875c3.512 0 6.357 2.845 6.357 6.357 0 1.399-.565 2.662-1.486 3.584l-1.422 1.461c-1.144 1.144-1.859 2.106-1.859 4.49h-3.18v-.795c0-1.756.715-3.346 1.859-4.498l1.979-2c.572-.572.93-1.366.93-2.24 0-1.756-1.422-3.178-3.178-3.178-1.756 0-3.178 1.422-3.178 3.178h-3.18c0-3.512 2.845-6.357 6.357-6.357m-1.59 19.07h3.18v3.18h-3.18v-3.18"/></svg>
